X: 6730
T: Chalk Sunday
R: jig
M: 6/8
K: Amajor
|:A2B cBc|Ace aaf|ecA BAF|~B3 BAF|
A2B cBc|Ace aaf|ecA BAB|1 cAA A2E:|2 cAA A2f||
|:ece aaf|ece aaf|ecA BAF|~B3 BAF|
A2B cBc|Ace aaf|ecA BAB|1 cAA A2f:|2 cAA A2E||

